Papirus-Dark/16x16/actions/text-wiki.svg

<svg xmlns="http://www.w3.org/2000/svg" width="16" height="16" version="1.1">
 <defs>
  <style id="current-color-scheme" type="text/css">
   .ColorScheme-Text { color:#dfdfdf; } .ColorScheme-Highlight { color:#4285f4; }
  </style>
 </defs>
 <path style="fill:currentColor" class="ColorScheme-Text" d="m 10.491322,3.0002809 c -0.568651,-3.555e-4 -1.242151,0.00195 -1.656252,0.00445 l -0.04085,0.026905 v 0.2867404 c 0,0.03495 0.01515,0.059425 0.0454,0.08064 0.0308,0.022365 0.06161,0.03584 0.0953,0.03584 l 0.131595,0.013475 c 0.338621,0.013775 0.498061,0.1017601 0.544501,0.1568152 0.08074,0.09749 0.1186,0.2057302 -0.07714,0.6272507 L 8.363124,6.5352508 7.305823,4.3981474 C 6.958488,3.7151466 6.873833,3.5018963 7.396573,3.4617463 l 0.208736,-0.026905 c 0.100485,0 0.149745,-0.034805 0.149745,-0.1030501 V 3.0316159 l -0.07714,-0.026905 c 0,0 -1.969653,0.00345 -2.854254,0.00445 l -0.04085,0.026905 v 0.3001804 c 0,0.0671 0.07166,0.085265 0.208735,0.1030451 0.489641,0.06366 0.477586,0.1138702 0.962001,1.0618014 0.0726,0.1422201 0.285876,0.5690007 0.285876,0.5690007 l 1.102651,2.1415523 c 0,0 0.238315,0.520151 0.322181,0.703401 l -1.601802,3.1541042 -0.09076,-0.02241 c 0,0 -2.487953,-5.1805065 -3.208154,-6.9130087 -0.07493,-0.1795002 -0.10891,-0.3122554 -0.10891,-0.3942655 0,-0.1760502 0.159221,-0.2690703 0.481001,-0.2822553 l 0.37663,-0.01792 c 0.09932,0 0.149746,-0.037915 0.149746,-0.1164901 V 3.0405459 l -0.0363,-0.03135 c 0,0 -2.978204,-0.00345 -3.593905,0 L 0,3.0405459 v 0.2957004 c 0,0.05391 0.06538,0.088135 0.204195,0.1030501 0.378121,0.020045 0.629101,0.08 0.748701,0.1792053 0.11907,0.1003601 0.245655,0.3530804 0.412936,0.7482009 0.904351,2.1448022 2.826053,5.9745074 3.761754,8.1540104 0.269506,0.595251 0.605201,0.688051 1.016452,-0.01792 0.443345,-0.811901 1.218801,-2.379603 1.846852,-3.6604052 0.0091,-0.12425 0.0091,0.115106 0.12252,0.04033 0.586451,1.2753022 1.294302,2.8105042 1.688052,3.6111052 0.304936,0.621101 0.650301,0.680851 1.002852,0.01792 0.921201,-2.022053 3.616554,-8.1050103 3.616554,-8.1050103 0.116745,-0.2987854 0.27702,-0.5275507 0.485536,-0.6944509 0.207935,-0.1657302 0.5287,-0.2588503 0.962001,-0.2777754 C 15.956695,3.4345064 16,3.3954564 16,3.3180213 V 3.0312809 l -0.0318,-0.031395 h -3.308004 l -0.04085,0.031395 v 0.2867404 c 0,0.033815 0.01515,0.059425 0.0454,0.08064 0.0308,0.022365 0.06161,0.03584 0.0953,0.03584 l 0.2768,0.013475 c 0.339206,0.013775 0.431411,0.080245 0.562701,0.1926552 0.13069,0.1152601 0.14703,0.3105004 0.0454,0.5869007 l -2.926854,6.8595088 -0.11344,-0.0314 -1.860452,-3.7500052 c 0.002,-0.0035 0.0454,-0.08961 0.0454,-0.08961 l 1.520152,-2.8091033 c 0.177155,-0.2964854 0.34908,-0.5622007 0.43562,-0.6855009 0.158571,-0.2253753 0.247361,-0.2666653 0.680651,-0.2867354 0.08828,0 0.131595,-0.037915 0.131595,-0.1164901 V 3.0359409 l -0.0318,-0.031395 c 0,0 -0.46597,-0.00395 -1.034601,-0.00445 z"/>
</svg>

<svg xmlns="http://www.w3.org/2000/svg" width="16" height="16" version="1.1">
 <defs>
  <style id="current-color-scheme" type="text/css">
   .ColorScheme-Text { color:#dfdfdf; } .ColorScheme-Highlight { color:#4285f4; }
  </style>
 </defs>
 <path style="fill:currentColor" class="ColorScheme-Text" d="M 8.8351,3.0047 8.7942,3.0316 V 3.3184 C 8.7942,3.3533 8.8094,3.3778 8.8396,3.399 8.8704,3.4214 8.9012,3.4349 8.9349,3.4349 L 9.0665,3.4483 C 9.4051,3.4621 9.5646,3.5501 9.611,3.6051 9.6918,3.7026 9.7296,3.8109 9.5339,4.2324 L 8.3631,6.5353 7.3058,4.3981 C 6.9585,3.7151 6.8738,3.5019 7.3966,3.4617 L 7.6053,3.4348 C 7.7058,3.4348 7.7551,3.4 7.7551,3.3318 V 3.0316 L 7.6779,3.0047 4.8237,3.0092 4.7828,3.0361 V 3.3362 C 4.7828,3.4033 4.8545,3.4215 4.9915,3.4393 5.4812,3.503 5.4691,3.5532 5.9535,4.5011 L 7.6643,7.915 6.0625,11.069 5.9717,11.047 2.7635,4.1337 C 2.6886,3.9542 2.6546,3.8215 2.6546,3.7395 2.6546,3.5634 2.8138,3.4704 3.1356,3.4572 L 3.5123,3.4393 C 3.6116,3.4393 3.662,3.4014 3.662,3.3228 V 3.0405 L 3.6257,3.0092 H 0.0318 L 0,3.0405 V 3.3362 C 0,3.3902 0.06538,3.4244 0.20419,3.4393 0.58232,3.4593 0.8333,3.5193 0.9529,3.6185 1.072,3.7189 1.3658,4.3667 1.3658,4.3667 L 5.1276,12.521 C 5.3971,13.116 5.7328,13.209 6.144,12.503 L 7.9909,8.8424 C 8,8.7181 8.1134,8.8827 8.1134,8.8827 L 9.8015,12.494 C 10.106,13.115 10.452,13.175 10.804,12.512 L 14.421,4.4067 C 14.538,4.1079 14.698,3.8792 14.906,3.7123 15.114,3.5466 15.435,3.4534 15.868,3.4345 15.957,3.4345 16,3.3955 16,3.318 V 3.0313 L 15.968,2.9999 H 12.66 L 12.619,3.0313 V 3.318 C 12.619,3.3518 12.634,3.3774 12.665,3.3987 12.696,3.421 12.726,3.4345 12.76,3.4345 L 13.037,3.448 C 13.376,3.4618 13.468,3.5282 13.6,3.6406 13.73,3.7559 13.747,3.9511 13.645,4.2275 L 10.718,11.087 10.605,11.056 8.7442,7.3056 10.745,3.7214 C 10.904,3.496 10.993,3.4548 11.426,3.4347 11.514,3.4347 11.558,3.3968 11.558,3.3182 V 3.0359 L 11.526,3.0045 Z"/>
</svg>
